X: 18
T:Peter's Peerie Boat - 2nd Part
M:6/8
L:1/8
C:Trish Barker
R:Jig
K:D
A/B/c||:d2 d F2 F|GAB cde|f2 f dcd|e3 cde|!
d2 d F2 F|GAB cde|f2 d cBc|1d3-d2 A:||2 d3-d2 A||!
d2 d F2 d|c2 c E2 c|B2 B G2 B|A3-A2 F|G3 E3|!
F3 D3|E3 D3|C3 A,3|d2 d F2 d|c2 c E2 c|!
B2 B G2 B|A3-A2 F|G3 E3|F3 A3|dcB Afe|([F3d3] [F2d2])||
